artwork/resources/intui/icons/shell/toolbar/apply-all-changes_dark.svg

<svg width="16" height="16" viewBox="0 0 16 16" fill="none" xmlns="http://www.w3.org/2000/svg">
<g id="apply-all-changes/dark" clip-path="url(#clip0_2_610)">
<g id="nodes / annotation">
<path id="A" d="M8 15.0002L10.31 8.70016H11.59L13.98 15.0002H12.889L12.3175 13.3982H9.6445L9.109 15.0002H8ZM11.9774 12.4536L11.0485 9.89717L10.945 9.51016L10.8415 9.89717L9.96285 12.4536H11.9774Z" fill="#CED0D6"/>
</g>
<path id="revert" fill-rule="evenodd" clip-rule="evenodd" d="M12.7929 3.49998L11 1.70708C10.8047 1.51182 10.8047 1.19524 11 0.999977V0.999977C11.1953 0.804715 11.5118 0.804714 11.7071 0.999976L14.7071 3.99998L11.7071 6.99998C11.5118 7.19524 11.1953 7.19524 11 6.99998V6.99998C10.8047 6.80471 10.8047 6.48813 11 6.29287L12.7929 4.49998H6C4.067 4.49998 2.5 6.06698 2.5 7.99998C2.5 9.93297 4.067 11.5 6 11.5H6.5C6.77614 11.5 7 11.7238 7 12V12C7 12.2761 6.77614 12.5 6.5 12.5H6C3.51472 12.5 1.5 10.4853 1.5 7.99998C1.5 5.5147 3.51472 3.49998 6 3.49998H12.7929Z" fill="#3DDC84"/>
</g>
<defs>
<clipPath id="clip0_2_610">
<rect width="16" height="16" fill="white"/>
</clipPath>
</defs>
</svg>

<svg width="16" height="16" viewBox="0 0 16 16" fill="none" xmlns="http://www.w3.org/2000/svg"><g clip-path="url(#clip0_2_610)"><path d="M8 15l2.31-6.3h1.28l2.39 6.3h-1.091l-.571-1.602H9.644L9.11 15H8zm3.977-2.546l-.928-2.557-.104-.387-.104.387-.878 2.557h2.014z" fill="#CED0D6"/><path fill-rule="evenodd" clip-rule="evenodd" d="M12.793 3.5L11 1.707A.5.5 0 1 1 11.707 1l3 3-3 3A.5.5 0 1 1 11 6.293L12.793 4.5H6a3.5 3.5 0 0 0 0 7h.5a.5.5 0 0 1 0 1H6a4.5 4.5 0 1 1 0-9h6.793z" fill="#3DDC84"/></g><defs><clipPath id="clip0_2_610"><path fill="#fff" d="M0 0h16v16H0z"/></clipPath></defs></svg>
